X:1
T:Weber, LM
T:Weber, LM
T:Harmonia Sacra, 12th edition, 1867
T:Public Domain Courtesy of the Cyber Hymnal™
C:Harmonia Sacra, 12th edition, 1867
Z:Public Domain
Z:Courtesy of the Cyber Hymnal™
%%score ( 1 2 ) ( 3 4 )
L:1/8
Q:1/4=117
M:3/4
K:D
V:1 treble 
V:2 treble 
V:3 bass 
V:4 bass 
V:1
 [FA]2 | [FA]4 ([DF][GB]) | [FA]4 [Fd]2 | (c3 B) [Gc]2 | [Fd]4 (cB) | [FA]4 ([DF][GB]) | %6
 [FA]4 (Ad) | ([Ec]3 [DB]) [Ec]2 | !fermata![Fd]4 [Fd]2 | [Gd]4 (cB) | [FA]4 ([EG][DF]) | %11
 ([CE]2 [DF]2) ([EG][GB]) | [FA]4 [Fd]2 | [Gd]4 (cB) | [FA]4 [Ad]2 | (c3 B) [Gc]2 | %16
 !fermata![Fd]4 |] %17
V:2
 x2 | x6 | x6 | E4 x2 | x4 G2 | x6 | x4 F2 | x6 | x6 | x4 G2 | x6 | x6 | x6 | x4 G2 | x6 | G4 x2 | %16
 x4 |] %17
V:3
 [D,D]2 | [D,D]4 [D,D]2 | [D,D]4 [D,A,]2 | A,4 A,2 | (A,2 D2) [G,D]2 | [D,D]4 [D,D]2 | %6
 [D,D]4 [D,A,]2 | A,4 A,2 | !fermata![D,A,]4 [D,A,]2 | [G,B,]4 [G,D]2 | [D,D]4 [D,A,]2 | %11
 [A,,A,]4 [A,,D]2 | (D2 A,2) [D,A,]2 | [G,B,]4 [G,D]2 | [D,D]4 [F,A,D]2 | [A,E]4 [A,,A,E]2 | %16
 !fermata![D,D]4 |] %17
V:4
 x2 | x6 | x6 | A,4 A,2 | D,4 x2 | x6 | x6 | A,4 A,2 | x6 | x6 | x6 | x6 | D,4 x2 | x6 | x6 | x6 | %16
 x4 |] %17

